!!!ONB: MCCC : IJH0465_03 : Extracted Monophonic Melody
!!!COM: Haydn, Joseph
!!!OPR: String Quartet in G major
!!!OMV: 3
!!!SCT: Hob.III:75 ; Op.76 No.1
!!!ODT: 1796///
**kern
*thru
*k[f#]
*G:
*clefF
*M3/4
4d
=1
4g
4g
4e
=2
4a
4a
4d
=3
4cc
4cc
4a#
=4
4b
4b
4d
=5
4a#
4a#
4b
=6
4ee
4ee
4dd
=7
4gg
4gg
4ff#
=8
8bb
8bb
8bb
8bb
4aa
=9
4gg
4ff#
4ee
=10
4dd
4dd
4d
=11
4e-
4e-
4f#
=12
4g
4g
4a
=13
4b-
4b-
4cc#
=14
4dd
4dd
4gg
=15
4ff
4ee-
4dd
=16
4cc
4cc
4ee-
=17
4dd
4cc
4b-
=18
4a
4a
4r
=19
4g
4g
4r
=20
4f#
4f#
4r
=21
4g
4g
4r
=22
4f#
4f#
4d
=23
4g
4g
4e
=24
4a
4a
4d
=25
4cc
4cc
4a#
=26
4b
4b
4r
=27
2dd
4ee
=28
2cc
4ccc
=29
2ff#
4aa
=30
4gg
4r
4g
=31
4dd#
4dd#
4g
=32
4ee
4ee
4g
=33
4ff
4ff
4r
=34
4r
4r
4ff
=35
4ee
4ff#
4gg
=36
8ccc
8ccc
8ccc
8ccc
4bb
=37
4aa
4gg
4ff#
=38
4gg
4gg
4r
=39
4aa
4aa
4r
=40
4bb
4bb
4d
=41
8g
8b
8dd
8ff#
8gg
8bb
=42
4ddd
4g
4g
=43
8g
8a
4d
4a
=44
8a
8b
4g
4d
=45
8g
8b
8dd
8ff#
8gg
8bb
=46
4ddd
8e
8g
8b
8dd#
=47
8ee
8gg
8bb
8gg
8ee
8dd
=48
8cc#
8bb
8aa#
8bb
8ff#
8gg
=49
8a
8aa
8ff#
8gg
8ee
8ff#
=50
8dd#
8ee
8ff#
8gg
8aa
8bb
=51
8a
8cc#
8ee
8gg
8aa
8ccc#
=52
4d
4r
4dd
=53
8cc
8a
8f#
8d
8c
8A
=54
4G
4G
4gg
=55
8ee
8ff
4g
4ff
=56
8dd#
8ee
4c
4ee
=57
8dd#
8ee
8gg#
8aa
8bb
8ccc
=58
8bb
8ccc
8gg#
8aa
8bb
8ccc
=59
8bb
8ccc
8aa
8eee
8ccc
8aa
=60
8gg
8ff#
8ee
8dd
8cc
8a
=61
8g
8b
8dd
8ff#
8gg
8bb
=62
4ddd
4g
4g
=63
8g
8a
4d
4a
=64
8a
8b
4g
8e
8g
=65
8cc
8ee
8gg
8ee
8ccc
8gg
=66
8eee
8ccc
4ggg
4ggg
=67
8B
8d
8g
8b
8dd
8gg
=68
8bb
8gg
8dd
8b
8dd
8b
=69
8a
8cc
8ee
8cc
8a
8g
=70
8f#
8ee
8cc#
8dd
8b
8cc
=71
8d
8dd
8b
8cc
8a
8b
=72
8g#
8a
8b
8cc
8dd
8ee
=73
8d
8f#
8a
8cc
8dd
8ff#
=74
4G
2r
==
*-
